assets/logos/google.svg

<svg viewBox="0 0 533.5 544.3" xmlns="http://www.w3.org/2000/svg"><path d="M533.5 278.4c0-18.5-1.5-37.1-4.7-55.3H272.1v104.8h147c-6.1 33.8-25.7 63.7-54.4 82.7v68h87.7c51.5-47.4 81.1-117.4 81.1-200.2z" fill="#4285f4"/><path d="M272.1 544.3c73.4 0 135.3-24.1 180.4-65.7l-87.7-68c-24.4 16.6-55.9 26-92.6 26-71 0-131.2-47.9-152.8-112.3H28.9v70.1c46.2 91.9 140.3 149.9 243.2 149.9z" fill="#34a853"/><path d="M119.3 324.3c-11.4-33.8-11.4-70.4 0-104.2V150H28.9c-38.6 76.9-38.6 167.5 0 244.4l90.4-70.1z" fill="#fbbc04"/><path d="M272.1 107.7c38.8-.6 76.3 14 104.4 40.8l77.7-77.7C405 24.6 339.7-.8 272.1 0 169.2 0 75.1 58 28.9 150l90.4 70.1c21.5-64.5 81.8-112.4 152.8-112.4z" fill="#ea4335"/></svg>

<?xml version="1.0" encoding="UTF-8" standalone="no"?>
<!DOCTYPE svg PUBLIC "-//W3C//DTD SVG 1.1//EN" "http://www.w3.org/Graphics/SVG/1.1/DTD/svg11.dtd">
<svg width="100%" height="100%" viewBox="0 0 80 80" version="1.1" xmlns="http://www.w3.org/2000/svg" xmlns:xlink="http://www.w3.org/1999/xlink" xml:space="preserve" xmlns:serif="http://www.serif.com/" style="fill-rule:evenodd;clip-rule:evenodd;stroke-linejoin:round;stroke-miterlimit:2;">
    <g transform="matrix(0.146978,0,0,0.146978,0.79368,0)">
        <path d="M533.5,278.4C533.5,259.9 532,241.3 528.8,223.1L272.1,223.1L272.1,327.9L419.1,327.9C413,361.7 393.4,391.6 364.7,410.6L364.7,478.6L452.4,478.6C503.9,431.2 533.5,361.2 533.5,278.4Z" style="fill:rgb(66,133,244);fill-rule:nonzero;"/>
    </g>
    <g transform="matrix(0.146978,0,0,0.146978,0.79368,0)">
        <path d="M272.1,544.3C345.5,544.3 407.4,520.2 452.5,478.6L364.8,410.6C340.4,427.2 308.9,436.6 272.2,436.6C201.2,436.6 141,388.7 119.4,324.3L28.9,324.3L28.9,394.4C75.1,486.3 169.2,544.3 272.1,544.3Z" style="fill:rgb(52,168,83);fill-rule:nonzero;"/>
    </g>
    <g transform="matrix(0.146978,0,0,0.146978,0.79368,0)">
        <path d="M119.3,324.3C107.9,290.5 107.9,253.9 119.3,220.1L119.3,150L28.9,150C-9.7,226.9 -9.7,317.5 28.9,394.4L119.3,324.3Z" style="fill:rgb(251,188,4);fill-rule:nonzero;"/>
    </g>
    <g transform="matrix(0.146978,0,0,0.146978,0.79368,0)">
        <path d="M272.1,107.7C310.9,107.1 348.4,121.7 376.5,148.5L454.2,70.8C405,24.6 339.7,-0.8 272.1,0C169.2,0 75.1,58 28.9,150L119.3,220.1C140.8,155.6 201.1,107.7 272.1,107.7Z" style="fill:rgb(234,67,53);fill-rule:nonzero;"/>
    </g>
</svg>
